X:1
T:CON MORTUIS IN LINGUA MORTUA
T:CON MORTUIS IN LINGUA MORTUA
%%score { 1 | ( 2 6 ) | ( 3 4 5 ) }
L:1/8
Q:1/4=72
M:6/4
K:D
V:1 treble nm="Piano" snm="Pno."
V:2 treble 
V:6 treble 
V:3 treble 
V:4 treble 
V:5 treble 
V:1
"^Andante non troppo, con lamento" z6 | z12 | z12 | z12 | z12 | z12 | z12 | z12 | z12 | z12 | z12 | %11
!pp!"^tranquillo" f/4F/4f/4F/4f/4F/4f/4F/4 f/4F/4f/4F/4f/4F/4f/4F/4 f/4F/4f/4F/4f/4F/4f/4F/4 f/4F/4f/4F/4f/4F/4f/4F/4 f/4F/4f/4F/4f/4F/4f/4F/4 f/4F/4f/4F/4f/4F/4f/4F/4 | %12
 f/4F/4f/4F/4f/4F/4f/4F/4 f/4F/4f/4F/4f/4F/4f/4F/4 f/4F/4f/4F/4f/4F/4f/4F/4 f/4F/4f/4F/4f/4F/4f/4F/4 f/4F/4f/4F/4f/4F/4f/4F/4 f/4F/4f/4F/4f/4F/4f/4F/4 | %13
 f/4F/4f/4F/4f/4F/4f/4F/4 f/4F/4f/4F/4f/4F/4f/4F/4 f/4F/4f/4F/4f/4F/4f/4F/4 f/4F/4f/4F/4f/4F/4f/4F/4 f/4F/4f/4F/4f/4F/4f/4F/4 f/4F/4f/4F/4f/4F/4f/4F/4 | %14
 f/4F/4f/4F/4f/4F/4f/4F/4 f/4F/4f/4F/4f/4F/4f/4F/4 f/4F/4f/4F/4f/4F/4f/4F/4 f/4F/4f/4F/4f/4F/4f/4F/4 f/4F/4f/4F/4f/4F/4f/4F/4 f/4F/4f/4F/4f/4F/4f/4F/4 | %15
[Q:1/4=72]"_ritard. e perdendosi" f/4[Q:1/4=71]"^.9"F/4[Q:1/4=71]"^.7"f/4[Q:1/4=71]"^.6"F/4[Q:1/4=71]"^.5"f/4[Q:1/4=71]"^.4"F/4[Q:1/4=71]"^.2"f/4[Q:1/4=71]"^.1"F/4[Q:1/4=71] f/4[Q:1/4=70]"^.8"F/4[Q:1/4=70]"^.7"f/4[Q:1/4=70]"^.6"F/4[Q:1/4=70]"^.5"f/4[Q:1/4=70]"^.3"F/4[Q:1/4=70]"^.2"f/4[Q:1/4=70]"^.1"F/4[Q:1/4=69]"^.9" f/4[Q:1/4=69]"^.8"F/4[Q:1/4=69]"^.7"f/4[Q:1/4=69]"^.6"F/4[Q:1/4=69]"^.4"f/4[Q:1/4=69]"^.3"F/4[Q:1/4=69]"^.2"f/4[Q:1/4=69]F/4[Q:1/4=68]"^.9" f/4[Q:1/4=68]"^.8"F/4[Q:1/4=68]"^.7"f/4[Q:1/4=68]"^.5"F/4[Q:1/4=68]"^.4"f/4[Q:1/4=68]"^.3"F/4[Q:1/4=68]"^.1"f/4[Q:1/4=68]F/4[Q:1/4=67]"^.9" f/4[Q:1/4=67]"^.8"F/4[Q:1/4=67]"^.6"f/4[Q:1/4=67]"^.5"F/4[Q:1/4=67]"^.4"f/4[Q:1/4=67]"^.2"F/4[Q:1/4=67]"^.1"f/4[Q:1/4=67]F/4[Q:1/4=66]"^.9" f/4[Q:1/4=66]"^.7"F/4[Q:1/4=66]"^.6"f/4[Q:1/4=66]"^.5"F/4[Q:1/4=66]"^.3"f/4[Q:1/4=66]"^.2"F/4[Q:1/4=66]"^.1"f/4[Q:1/4=66]F/4 | %16
[Q:1/4=65]"^.8" f/4[Q:1/4=65]"^.7"F/4[Q:1/4=65]"^.6"f/4[Q:1/4=65]"^.4"F/4[Q:1/4=65]"^.3"f/4[Q:1/4=65]"^.2"F/4[Q:1/4=65]"^.1"f/4[Q:1/4=64]"^.9"F/4[Q:1/4=64]"^.8" f/4[Q:1/4=64]"^.7"F/4[Q:1/4=64]"^.5"f/4[Q:1/4=64]"^.4"F/4[Q:1/4=64]"^.3"f/4[Q:1/4=64]"^.2"F/4[Q:1/4=64]f/4[Q:1/4=63]"^.9"F/4[Q:1/4=63]"^.8" f/4[Q:1/4=63]"^.6"F/4[Q:1/4=63]"^.5"f/4[Q:1/4=63]"^.4"F/4[Q:1/4=63]"^.3"f/4[Q:1/4=63]"^.1"F/4[Q:1/4=63]f/4[Q:1/4=62]"^.9"F/4[Q:1/4=62]"^.8" f/4[Q:1/4=62]"^.6"F/4[Q:1/4=62]"^.5"f/4[Q:1/4=62]"^.4"F/4[Q:1/4=62]"^.2"f/4[Q:1/4=62]"^.1"F/4[Q:1/4=62]f/4[Q:1/4=61]"^.9"F/4[Q:1/4=61]"^.7" f/4[Q:1/4=61]"^.6"F/4[Q:1/4=61]"^.5"f/4[Q:1/4=61]"^.3"F/4[Q:1/4=61]"^.2"f/4[Q:1/4=61]"^.1"F/4[Q:1/4=61]f/4[Q:1/4=60]"^.8"F/4[Q:1/4=60]"^.7" f/4[Q:1/4=60]"^.6"F/4[Q:1/4=60]"^.4"f/4[Q:1/4=60]"^.3"F/4[Q:1/4=60]"^.2"f/4[Q:1/4=60]"^.1"F/4[Q:1/4=59]"^.9"f/4[Q:1/4=59]"^.8"F/4 | %17
[Q:1/4=59]"^.7" f/4[Q:1/4=59]"^.5"F/4[Q:1/4=59]"^.4"f/4[Q:1/4=59]"^.3"F/4[Q:1/4=59]"^.2"f/4[Q:1/4=59]F/4[Q:1/4=58]"^.9"f/4[Q:1/4=58]"^.8"F/4[Q:1/4=58]"^.6" f/4[Q:1/4=58]"^.5"F/4[Q:1/4=58]"^.4"f/4[Q:1/4=58]"^.3"F/4[Q:1/4=58]"^.1"f/4[Q:1/4=58]F/4[Q:1/4=57]"^.9"f/4[Q:1/4=57]"^.7"F/4[Q:1/4=57]"^.6" f/4[Q:1/4=57]"^.5"F/4[Q:1/4=57]"^.4"f/4[Q:1/4=57]"^.2"F/4[Q:1/4=57]"^.1"f/4[Q:1/4=57]F/4[Q:1/4=56]"^.8"f/4[Q:1/4=56]"^.7"F/4[Q:1/4=56]"^.6" f/4[Q:1/4=56]"^.5"F/4[Q:1/4=56]"^.3"f/4[Q:1/4=56]"^.2"F/4[Q:1/4=56]"^.1"f/4[Q:1/4=55]"^.9"F/4[Q:1/4=55]"^.8"f/4[Q:1/4=55]"^.7"F/4[Q:1/4=55]"^.6" f/4[Q:1/4=55]"^.4"F/4[Q:1/4=55]"^.3"f/4[Q:1/4=55]"^.2"F/4[Q:1/4=55]f/4[Q:1/4=54]"^.9"F/4[Q:1/4=54]"^.8"f/4[Q:1/4=54]"^.7"F/4[Q:1/4=54]"^.5" f/4[Q:1/4=54]"^.4"F/4[Q:1/4=54]"^.3"f/4[Q:1/4=54]"^.1"F/4[Q:1/4=54]f/4[Q:1/4=53]"^.9"F/4[Q:1/4=53]"^.8"f/4[Q:1/4=53]"^.6"F/4 | %18
[Q:1/4=53]"^.5" f/4[Q:1/4=53]"^.4"F/4[Q:1/4=53]"^.2"f/4[Q:1/4=53]"^.1"F/4[Q:1/4=53]f/4[Q:1/4=52]"^.9"F/4[Q:1/4=52]"^.7"f/4[Q:1/4=52]"^.6"F/4[Q:1/4=52]"^.5" f/4[Q:1/4=52]"^.3"F/4[Q:1/4=52]"^.2"f/4[Q:1/4=52]"^.1"F/4[Q:1/4=52]f/4[Q:1/4=51]"^.8"F/4[Q:1/4=51]"^.7"f/4[Q:1/4=51]"^.6"F/4[Q:1/4=51]"^.4" f/4[Q:1/4=51]"^.3"F/4[Q:1/4=51]"^.2"f/4[Q:1/4=51]"^.1"F/4[Q:1/4=50]"^.9"f/4[Q:1/4=50]"^.8"F/4[Q:1/4=50]"^.7"f/4[Q:1/4=50]"^.5"F/4[Q:1/4=50]"^.4" f/4[Q:1/4=50]"^.3"F/4[Q:1/4=50]"^.2"f/4[Q:1/4=50]F/4[Q:1/4=49]"^.9"f/4[Q:1/4=49]"^.8"F/4[Q:1/4=49]"^.6"f/4[Q:1/4=49]"^.5"F/4[Q:1/4=49]"^.4" f/4[Q:1/4=49]"^.3"F/4[Q:1/4=49]"^.1"f/4[Q:1/4=49]F/4[Q:1/4=48]"^.9"f/4[Q:1/4=48]"^.7"F/4[Q:1/4=48]"^.6"f/4[Q:1/4=48]"^.5"F/4[Q:1/4=48]"^.4" f/4[Q:1/4=48]"^.2"F/4[Q:1/4=48]"^.1"f/4[Q:1/4=48]F/4[Q:1/4=47]"^.8"f/4[Q:1/4=47]"^.7"F/4[Q:1/4=47]"^.6"f/4[Q:1/4=47]"^.5"F/4 | %19
[Q:1/4=47]"^.3" f/4[Q:1/4=47]"^.2"F/4[Q:1/4=47]"^.1"f/4[Q:1/4=46]"^.9"F/4[Q:1/4=46]"^.8"f/4[Q:1/4=46]"^.7"F/4[Q:1/4=46]"^.6"f/4[Q:1/4=46]"^.4"F/4[Q:1/4=46]"^.3" f/4[Q:1/4=46]"^.2"F/4[Q:1/4=46]f/4[Q:1/4=45]"^.9"F/4[Q:1/4=45]"^.8"f/4[Q:1/4=45]"^.7"F/4[Q:1/4=45]"^.5"f/4[Q:1/4=45]"^.4"F/4[Q:1/4=45]"^.3" f/4[Q:1/4=45]"^.1"F/4[Q:1/4=45]f/4[Q:1/4=44]"^.9"F/4[Q:1/4=44]"^.8"f/4[Q:1/4=44]"^.6"F/4[Q:1/4=44]"^.5"f/4[Q:1/4=44]"^.4"F/4[Q:1/4=44]"^.3" f/4[Q:1/4=44]"^.1"F/4[Q:1/4=44]f/4[Q:1/4=43]"^.9"F/4[Q:1/4=43]"^.7"f/4[Q:1/4=43]"^.6"F/4[Q:1/4=43]"^.5"f/4[Q:1/4=43]"^.4"F/4[Q:1/4=43]"^.2" f/4[Q:1/4=43]"^.1"F/4[Q:1/4=43]f/4[Q:1/4=42]"^.8"F/4[Q:1/4=42]"^.7"f/4[Q:1/4=42]"^.6"F/4[Q:1/4=42]"^.5"f/4[Q:1/4=42]"^.3"F/4[Q:1/4=42]"^.2" f/4[Q:1/4=42]"^.1"F/4[Q:1/4=41]"^.9"f/4[Q:1/4=41]"^.8"F/4[Q:1/4=41]"^.7"f/4[Q:1/4=41]"^.6"F/4[Q:1/4=41]"^.4"f/4[Q:1/4=41]"^.3"F/4 | %20
[Q:1/4=41]"^.2" z12[Q:1/4=41][Q:1/4=40]"^.9"[Q:1/4=40]"^.8"[Q:1/4=40]"^.7"[Q:1/4=40]"^.5"[Q:1/4=40]"^.4"[Q:1/4=40]"^.3"[Q:1/4=40]"^.1"[Q:1/4=40][Q:1/4=39]"^.9"[Q:1/4=39]"^.8"[Q:1/4=39]"^.6"[Q:1/4=39]"^.5"[Q:1/4=39]"^.4"[Q:1/4=39]"^.2"[Q:1/4=39]"^.1"[Q:1/4=39][Q:1/4=38]"^.9"[Q:1/4=38]"^.7"[Q:1/4=38]"^.6"[Q:1/4=38]"^.5"[Q:1/4=38]"^.3"[Q:1/4=38]"^.2"[Q:1/4=38]"^.1"[Q:1/4=38][Q:1/4=37]"^.8"[Q:1/4=37]"^.7"[Q:1/4=37]"^.6"[Q:1/4=37]"^.4"[Q:1/4=37]"^.3"[Q:1/4=37]"^.2"[Q:1/4=37]"^.1"[Q:1/4=36]"^.9"[Q:1/4=36]"^.8"[Q:1/4=36]"^.7"[Q:1/4=36]"^.5"[Q:1/4=36]"^.4"[Q:1/4=36]"^.3"[Q:1/4=36]"^.2"[Q:1/4=36][Q:1/4=35]"^.9"[Q:1/4=35]"^.8"[Q:1/4=35]"^.6"[Q:1/4=35]"^.5"[Q:1/4=35]"^.4"[Q:1/4=35]"^.3"[Q:1/4=35]"^.1" |] %21
V:2
!pp!"^tremolo"!8va(! f'/4f/4f'/4f/4f'/4f/4f'/4f/4 f'/4f/4f'/4f/4f'/4f/4f'/4f/4 f'/4f/4f'/4f/4f'/4f/4f'/4f/4 | %1
 f'/4f/4f'/4f/4f'/4f/4f'/4f/4 f'/4f/4f'/4f/4f'/4f/4f'/4f/4 f'/4f/4f'/4f/4f'/4f/4f'/4f/4 f'/4f/4f'/4f/4f'/4f/4f'/4f/4 f'/4f/4f'/4f/4f'/4f/4f'/4f/4 f'/4f/4f'/4f/4f'/4f/4f'/4f/4 | %2
 f'/4f/4f'/4f/4f'/4f/4f'/4f/4 f'/4f/4f'/4f/4f'/4f/4f'/4f/4 f'/4f/4f'/4f/4f'/4f/4f'/4f/4 f'/4f/4f'/4f/4f'/4f/4f'/4f/4 f'/4f/4f'/4f/4f'/4f/4f'/4f/4 f'/4f/4f'/4f/4f'/4f/4f'/4f/4 | %3
 f'/4f/4f'/4f/4f'/4f/4f'/4f/4 f'/4f/4f'/4f/4f'/4f/4f'/4f/4 f'/4f/4f'/4f/4f'/4f/4f'/4f/4 ^e'/4^e/4e'/4e/4e'/4e/4e'/4e/4 =e'/4=e/4e'/4e/4e'/4e/4e'/4e/4 d'/4d/4d'/4d/4d'/4d/4d'/4d/4!8va)! | %4
 b/4B/4b/4B/4b/4B/4b/4B/4 ^a/4^A/4a/4A/4a/4A/4a/4A/4 =a/4=A/4a/4A/4a/4A/4a/4A/4 ^g/4^G/4g/4G/4g/4G/4g/4G/4 =g/4=G/4g/4G/4g/4G/4g/4G/4 g/4G/4g/4G/4g/4G/4g/4G/4 | %5
 =f/4=F/4f/4F/4f/4F/4f/4F/4 f/4F/4f/4F/4f/4F/4f/4F/4 ^f/4^F/4f/4F/4f/4F/4f/4F/4!8va(! f'/4f/4f'/4f/4f'/4f/4f'/4f/4 f'/4f/4f'/4f/4f'/4f/4f'/4f/4 =f'/4=f/4f'/4f/4f'/4f/4f'/4f/4 | %6
 e'/4e/4e'/4e/4e'/4e/4e'/4e/4!8va)! c'/4c/4c'/4c/4c'/4c/4c'/4c/4 b/4B/4b/4B/4b/4B/4b/4B/4 a/4A/4a/4A/4a/4A/4a/4A/4 d'/4d/4d'/4d/4d'/4d/4d'/4d/4 d'/4d/4d'/4d/4d'/4d/4d'/4d/4 | %7
 c'/4c/4c'/4c/4c'/4c/4c'/4c/4!8va(! f'/4f/4f'/4f/4f'/4f/4f'/4f/4 =a'/4=a/4a'/4a/4a'/4a/4a'/4a/4 f'/4f/4f'/4f/4f'/4f/4f'/4f/4 f'/4f/4f'/4f/4f'/4f/4f'/4f/4 f'/4f/4f'/4f/4f'/4f/4f'/4f/4 | %8
 f'/4f/4f'/4f/4f'/4f/4f'/4f/4 e'/4e/4e'/4e/4e'/4e/4e'/4e/4 e'/4e/4e'/4e/4e'/4e/4e'/4e/4 c'/4c/4c'/4c/4c'/4c/4c'/4c/4 e'/4e/4e'/4e/4e'/4e/4e'/4e/4 e'/4e/4e'/4e/4e'/4e/4e'/4e/4!8va)! | %9
 c'/4c/4c'/4c/4c'/4c/4c'/4c/4 =c'/4=c/4c'/4c/4c'/4c/4c'/4c/4 b/4B/4b/4B/4b/4B/4b/4B/4 ^a/4^A/4a/4A/4a/4A/4a/4A/4 =a/4=A/4a/4A/4a/4A/4a/4A/4 ^g/4^G/4g/4G/4g/4G/4g/4G/4 | %10
 g/4G/4g/4G/4g/4G/4g/4G/4 =f/4=F/4f/4F/4f/4F/4f/4F/4 f/4F/4f/4F/4f/4F/4f/4F/4 ^f/4^F/4f/4F/4f/4F/4f/4F/4 f/4F/4f/4F/4f/4F/4f/4F/4 f/4F/4f/4F/4f/4F/4f/4F/4 | %11
!pp! [F^Bf]12 | [F^Acf]2 z2 z2 z4 z2 | [F^Bf]12 | [F^Acf]2 z2 z2 z4 z2 | [Ff]12 | %16
 [F^Acf]4 z2 z4 z2 | [Ff]12 | [F^Acf]4 z2 z4 z2 | [FB^df]12 | %20
 f/4F/4f/4F/4f/4F/4f/4F/4 f/4F/4f/4F/4f/4F/4f/4F/4 f/4F/4f/4F/4f/4F/4f/4F/4 f/4F/4f/4F/4f/4F/4f/4F/4 f/4F/4f/4F/4f/4F/4f/4F/4 f/4F/4f/4F/4f/4F/4f/4F/4 |] %21
V:3
 z6 | z2"^il canto marcato" G2 F2 B2 c2 f2 | d2 c2 f2 d2 c2 B2 | %3
 F2[K:bass] ([G,,,G,,]2 [F,,,F,,]2 [B,,,B,,]2 [C,,C,]2 [F,,F,]2 | %4
 [D,,D,]2 [C,,C,]2 [F,,F,]2 [D,,D,]4 [B,,,B,,]2 | %5
 [C,,C,]2 [B,,,B,,]2 [F,,,F,,]2) !fermata!z2[K:treble] (F2 G2 | E2) (F2 G2 E2) ([FA]2 [GB]2 | %7
 C4 f2) (d2 c2 B2 | F2)[K:bass] ([F,,,F,,]2 [G,,,G,,]2 [E,,,E,,]2) ([F,,,F,,]2 [G,,,G,,]2 | %9
 [E,,,E,,]2) ([A,,,A,,]2 [B,,,B,,]2 [F,,,F,,]4 [F,,F,]2) | %10
 ([D,,D,]2 [C,,C,]2 [B,,,B,,]2 [F,,,F,,]2) z2 z2 |"_il canto cantabile ben marc." (E6 ^^C4 ^B,2 | %12
 C2) (.F,,2 .C,2 .F,2 .^A,2 .C2) | (E6 ^^C4 ^B,2 | C2) (.F,,2 .C,2 .F,2 .^A,2 .C2) | %15
 (^D6 ^^G,4 ^A,2) | [F,^A,C]6- [F,A,C]4 z2 | ^D6 ^^G,4 ^A,2 | [F,^A,C]6- [F,A,C]4 z2 | [F,B,^D]12 | %20
[K:treble]!8va(! !fermata![b^d'f']12!8va)! |] %21
V:4
 x6 | x2 [B,E]2 [^A,C]2 [DF]2 [F^A]2- [FA] x | [GB]2 [^EB]2 [F^A] x B2 F2 G2 | F2[K:bass] x10 | %4
 x12 | x8[K:treble] [^A,C]2 [B,D]2 | [G,=C]2 [F,^A,]2 [G,B,]2 [=A,^C]2 D4 | %7
 ^A,2 F,2 [Ad]2 B2 F2 G2 | F2[K:bass] x10 | x12 | x12 | [D,A,^B,]12 | [F,^A,]2 x10 | [D,A,^B,]12 | %14
 [F,^A,]2 x10 | [B,,F,]12 | x6 [B,,,F,,]4- [B,,,F,,] x | [B,,F,]12 | x6 [B,,,F,,]4- [B,,,F,,] x | %19
 x2 (.B,,,2 .F,,2 .^D,2 .B,2 .^D2) |[K:treble]!8va(! x12!8va)! |] %21
V:5
 x6 | x12 | x12 | x2[K:bass] x10 | x12 | x8[K:treble] x4 | x12 | F12 | x2[K:bass] x10 | x12 | x12 | %11
 x12 | x12 | x12 | x12 | x12 | x12 | x12 | x12 | x12 |[K:treble]!8va(! x12!8va)! |] %21
V:6
!8va(! x6 | x12 | x12 | x12!8va)! | x12 | x6!8va(! x6 | x2!8va)! x10 | x2!8va(! x10 | x12!8va)! | %9
 x12 | x12 | (e6 ^^c4 ^B2 | z2) z2 z2 z4 z2 | (e6 ^^c4 ^B2 | z2) z2 z2 z4 z2 | ([c^d]6 ^^G4 ^A2) | %16
 z4 z2 z4 z2 | ([c^d]6 ^^G4 ^A2) | z4 z2 z4 z2 | x12 | x12 |] %21

